X:1
I:linebreak $
T:Alta Battistina
C:James Blackcloak
P:(AABBC)x4 DDD
M:6/8
L:1/8
K:Dmin
B2A2G2 | ^FEF DEF | G^FG BAG | ^F2D2F2 | G2B2A2 | B3 AB2 | A3 GA2 | B2B4 |
A2G2^F2 | G^FG BAF | G2G2^F2 | G6 ::
P:B
d2c2B2 | AGA FGA | B2B2A2 | B6 |
A2G2^F2 | G3 cBA | G2G2^F2 | G6 :|
P:C
B2A2G2 | ^FEF DEF | G2G2^F2 | G3 cBA |
G2G2^F2 | G3 cBA | G2G2^F2 | G6 ::
M:3/8
P:D
B2B | B3/2A/2G | ^F3/2E/2F | DE^F | G3/2^F/2G | BAG | ^F3 | D2^F |
G3/2^F/2G | A3/2G/2A | BAG | BAG | AGA | FGA | B3/2B/2B | B3 |
A3/2G/2^F | A3/2G/2^F | G^FG | E^FG | DE^F | AG^F | G2G | G3 :|

